X: 1293
T: Lennox's Love to Blantyre.   a Reel.
%R: reel
B: Niel Gow & Sons "Complete Repository" v.1 p.20 #3
Z: 2021 John Chambers <jc:trillian.mit.edu>
N: The 1st strain doesn't seem to have a (legible) repeat ':', but it was probably intended.
N: Of course, the repeat pattern depends on the dance you're playing for, so it doesn't matter here.
M: C|
L: 1/8
K: F
% - - - - - - - - - -
% Voice 1 formatted for compactness and proofreading.
V: 1 staves=2
A !segno!|\
F2(FG) {B}A>GFA | G/G/G Ac Td>cde | ~f>gfd cAFA | BGAF D/D/D D :| f | ~c>dfg agfa | Tgfga g>fdf |
~c>dfg agfa | gfba Tg2f2 || c>dfg agfa | Tg>fga Tg>fdf | c>dfg f>gaf | {a}gfba Tg2f !segno!|]
% - - - - - - - - - -
% Voice 2 preserves the book's staff layout.
V: 2 clef=bass middle=d
z !segno!|\
f2f2 f2f2 | g2g2 g2g2 | a2b2 a2f2 | g2a2 d2d :| z | f2f2 f2f2 | g2a2 d2d2 |
f2f2 f2a2 | c'2c2 f2f2 || f2f2 f2f2 | g2a2 d2B2 | A2F2 F2f2 | c2c2 f2f !segno!|]
